!!!!SEGMENT: pl-wnifc--13846--008_anonim--8-szczera-milosc-na-swiecie.krn
!!!kernsource:
!!!cenid: 18xx:3230
!!!COM: Anonim
!!!COM-rismid: pe30004985
!!!CDT:
!!!CNT:
!!!OTL: 8. Szczera miłość na świecie
!!!PDT: 1833
!!!AGN:
!!!SMS-siglum: PL-Wnifc
!!!SMS-shelfmark: 13846
!!!SMS-shelfwork: 008 W
!!!NIFC-rismid: 1001036726
!!!URL-scan: http://repozytorium.nifc.pl/skany/pl-wnifc-nut--13846
!!!ONB-nifc:
!!!key: C
**kern	**kern	**dynam	**kern	**text
*part2	*part2	*part2	*part1	*part1
*staff3	*staff2	*	*staff1	*staff1
*>[A,B,B]	*>[A,B,B]	*>[A,B,B]	*>[A,B,B]	*>[A,B,B]
*>A	*>A	*>A	*>A	*>A
*I"FORTEPIAN.	*I"FORTEPIAN.	*	*I"GŁOS.	*
*Ipiano	*Ipiano	*	*Ivox	*
*ICklav	*ICklav	*	*ICvox	*
*IGacmp	*IGacmp	*	*IGsolo	*
*clefF4	*clefG2	*	*clefG2	*
*k[]	*k[]	*	*k[]	*
*C:	*C:	*	*C:	*
*M2/4	*M2/4	*	*M2/4	*
=1-	=1-	=1-	=1-	=1-
!	!LO:TX:a:t=C.b. 5.:rj	!LO:DY:t=for.	!LO:TX:a:t=Krakowiak.	!
8GG/L 8CC/	8ee\L 8cc\	f	8ee\	Szczé-
8C/	8gg\J 8ee\	.	8gg\	-ra
8GG/ 8CC/	8gg\L 8ee\	.	8gg\	mi-
8C/J	16gg\L 16ee\	.	(>16gg\LL	-łość
.	16ff#X\JJ 16dd#X\	.	16ff#X\JJ)	.
=2	=2	=2	=2	=2
8GG/L 8CC/	(>8gg\L 8ee\	.	8gg\	na
8BB/	8aa\J 8ffn\)	.	8aa\	świe-
8GG/ 8CC/	4ff\ 4dd\	.	4ffn\	-cie
8BB/J	.	.	.	.
=3	=3	=3	=3	=3
8BB/L 8GG/	8dd/L 8g/	.	8dd\	z_ni-
8G/	8dd\ 8b\	.	8dd\	-kim
8BB/ 8GG/	8ff\ 8dd\	.	8ff\	nie
8G/J	8aa\J 8ff\	.	8aa\	wo-
!!LO:LB:g=original
=4	=4	=4	=4	=4
8G\L 8C\	(>8aa\L 8ff\	.	(>8aa\L	-ju-
8c\	8gg\J 8ee\)	.	8gg\J)	.
8G\ 8C\	4gg\ 4ee\	.	4gg\	-je
8c\J	.	.	.	.
=5	=5	=5	=5	=5
8G\L 8C\	8ee\L 8cc\	.	8ee\	pę-
8c\	8gg\J 8ee\	.	8gg\	-dzi
8G\ 8C\	8gg\ 8ee\	.	8gg\	woł-
8c\J	(>16gg\LL 16ee\	.	(>16gg\LL	-ki
.	16ff#X\JJ 16dd#X\)	.	16ff#X\JJ)	.
=6	=6	=6	=6	=6
8G\L 8C\	8gg\L 8ee\	.	8gg\L	do
8B\	8aa\J 8ffn\	.	8aa\J	la-
!LO:N:vis=8	!	!	!	!
16G\L 16C\	4ff\ 4dd\	.	4ffn\	-sa
!LO:N:vis=8	!	!	!	!
16G\J 16C\	.	.	.	.
8B\J	.	.	.	.
!!LO:LB:g=original
=7	=7	=7	=7	=7
8BB/L 8GG/	8ff\L 8dd\	.	8ff\	tak
8G/	8aa\ 8ff\	.	8aa\	sy
8BB/ 8GG/	8ff\ 8dd\	.	8ff\	wy-
8G/J	8dd\J 8f\	.	8dd\	-śpié-
=8	=8	=8	=8	=8
!LO:S:s=2:note:problem:note-level slur	!	!	!	!
(>4G\ (>4C\	(<8dd/L 8f/	.	(>8dd\L	-wu-
.	8cc/J 8e/)	.	8cc\J)	.
4c\ 4G\) 4C\)	4cc/ 4e/	.	4cc\	-je
=9!|:	=9!|:	=9!|:	=9!|:	=9!|:
*>B	*>B	*>B	*>B	*>B
8GG/ 8GGG/	8gg\L 8ee\	.	8gg\	da-
(>8G\'L	8aa\ 8ff\	.	8aa\	-na,
8f\ 8B\	8ff\ 8dd\	.	8ff\	da-
8G\J)	8dd\J 8f\	.	8dd\	-na!
!!LO:LB:g=original
=10	=10	=10	=10	=10
8C/ 8CC/	8cc\L 8e\	.	8cc\	da-
!	!LO:TX:t=P:problem:obiegnik przekreślony	!	!	!
8G\'L	8ccs$\	.	8cc\	-na,
(>8e\ 8c\	8ee\ 8cc\	.	8ee\	da-
8G\J)	8gg\J 8ee\	.	8gg\	-na,
=11	=11	=11	=11	=11
8GG/ 8GGG/	8gg\L 8ee\	.	8gg\	tak
8G\L	8aa\ 8ff\	.	8aa\	sy
8f\ 8B\	8ff\ 8dd\	.	8ff\	wy-
8G\J	8dd\J 8f\	.	8dd\	-śpie-
=12	=12	=12	=12	=12
(>(<4G\ 4C\	(<8dd/L 8f/	.	(>8dd\L	-wu-
.	8cc/J 8e/)	.	8cc\J)	.
4c\ 4G\) 4C\)	4cc/ 4e/	.	4cc\	-je.
=:|!	=:|!	=:|!	=:|!	=:|!
*-	*-	*-	*-	*-
!!!system-decoration: <s1>{(s2,s3)}
!!!RDF**kern: > = above
!!!RDF**kern: < = below
!!!ENC: Andrzej Kubiczek
!!!END: 2021-11-09
